X: 2
T: the Hills of Kaitoke
C: Catherine Fraser
N: Chords by Duncan Smith 2007
R: reel
S: Boston Scottish Fiddle Club email 2020-12-19
Z: 2020 John Chambers <jc:trillian.mit.edu>
M: C|
L: 1/8
K: E
Bef |\
"E"fg2 g2 agB | "A"Bc2 c2 Bfg |\
"F#m"agfe Bceg | "B7"ef2 f2 Bef |\
"E"fg2 g2 agB |
"A"Bc2 c2 BGE |\
"F#m"CEFG ABce | "B7"fege f :: efg |\
"A"agB2- Bagf | "E/g#"gfe B2 gfe |
"F#m"feBf eB"A"ce | "B7"fege "A/c#"fe"B/d#"fg |\
"A"agB2- Bagf |"E/g#"gfeB- BAGE |\
"F#m"CEFG ABce | "B7"fege f :|

